!!!!SEGMENT: pl-sa--l-1636--101_anonim--jezu-christe.krn
!!!cenid: 17xx:808
!!!COM: Anonim
!!!COM-rismID:
!!!CDT:
!!!CNT:
!!!OTL: Jezu Christe
!!!PDT:
!!!AGN: Sacred
!!!SMS-siglum: PL-SA
!!!SMS-shelfmark: L 1636
!!!SMS-shelfwork: 101 W
!!!SMS-variant:
!!!SMS-altvar:
!!!NIFC-rismSourceID: 1001087461
!!!NIFC-islandoraID:
!!!URL-pdf-islandora:
!!!URL-scan:
!!!ONB-nifc: 52r, skan 0043, s. 3-4
!!!AIN: 2 empty
!!!key:
**kern	**kern
*part2	*part1
*staff2	*staff1
*Iempty	*Iempty
*	*I"Keyb
*clefF4	*clefC1
*k[]	*k[]
*a:	*a:
*M2/2	*M2/2
*met(c|)	*met(c|)
=1	=1
*	*^
!	!LO:TX:b:t=Jezu Christe	!LO:SIC:o:s:=:v:all\right global
4A\	4a/	4e/
8G#X\L	4b/	4g#X\
8E\J	.	.
!	!LO:SIC:o:s:=:v:dziura	!
8F\L	4.g#Xt/	2d/yy
8D\J	.	.
!LO:TX:t=P:problem=mixed beam	!	!
8E\L	.	.
8EE/J	16f/LL	.
.	16e/JJ	.
=2	=2	=2
4D/	4a/	4f#X\
4BB/	4b/	4g#X\
8AA/L	2cc/ 2a/ 2e/	2ryy
8BB/	.	.
8C/	.	.
8D/J	.	.
=3	=3	=3
*^	*	*
2E/	2EE/	2b/ 2g#X/	2e\
8E\L	4b/	4g#X\	2ryy
8D\J	.	.	.
8C/L	4cc/	4a\	.
16BB/L	.	.	.
16AA/JJ	.	.	.
*v	*v	*	*
=4	=4	=4
!LO:TX:t=P:problem=mixed beam	!	!
8BB/L	4dd/	4b\
8G#X\J	.	.
16A\LL	4cc/	4a\
16G#\	.	.
16F\	.	.
16E\JJ	.	.
8D\L	4dd/	8f#X\L
8E\	.	8g#X\J
8F\	4cc/	4a\
8D\J	.	.
=5	=5	=5
*	*	*^
4E\	2b/	8a\L	4ryy
.	.	16g#X\L	.
.	.	16f#X\JJ	.
4EE/	.	8e\L	4g#X/
.	.	8d\J	.
!	!LO:SIC:o:s:=:v:znak repetycji na końcu systemu	!	!
2AA/	2a/	2e/ 2c#X/	2ryy
!!LO:LB:g=original
=6	=6	=6	=6
!LO:TX:t=P:problem=mixed beam	!LO:TX:b:t=Repete	!	!
8A\L	2cc/	2a\	1e/
16AA/L	.	.	.
16BB/JJ	.	.	.
16C/LL	.	.	.
16BB/	.	.	.
16C/	.	.	.
16D/JJ	.	.	.
!LO:TX:t=P:problem=mixed beam	!	!	!
8EE/L	2b/	2g#X/	.
16E\L	.	.	.
16F\JJ	.	.	.
16E\LL	.	.	.
16D\	.	.	.
16C\	.	.	.
16BB\JJ	.	.	.
*	*	*v	*v
=7	=7	=7
!LO:TX:t=P:problem=mixed beam	!	!
16C\LL	2ee/ 2cc/	1g\
16CC/	.	.
16C\	.	.
16D\JJ	.	.
16E\LL	.	.
16D\	.	.
16E\	.	.
16F\JJ	.	.
!LO:TX:t=P:problem=mixed beam	!	!
8G\L	2dd/ 2b/	.
16GG/L	.	.
16AA/JJ	.	.
!LO:TX:t=P:problem=mixed beam	!	!
16BB/LL	.	.
16AA/	.	.
16BB/	.	.
16G#X/JJ	.	.
=8	=8	=8
!LO:TX:t=P:problem=mixed beam	!	!
8AA/L	4cc/	4a\
16A\L	.	.
16G\JJ	.	.
16F\LL	4cc/	4a\
!LO:SIC:o:s:=:v:dziura	!	!
16r\yy	.	.
16D\	.	.
16C\JJ	.	.
8D\L	4dd/	8f#X\L
8E\	.	8g#X\J
8F\	4cc/	4a\
8C\J	.	.
=9	=9	=9
*^	*	*
*	*^	*	*^
!LO:TX:t=P:problem=mixed beam	!	!	!	!	!
8D\L	2ryy	2ryy	2b/	8a\L	4ryy
8BB\	.	.	.	16g#X\L	.
.	.	.	.	16f#X\JJ	.
8E\	.	.	.	8e\L	4g#X/
8EE/J	.	.	.	8d\J	.
2A/	2E\	2AA/	2a/	2e/ 2c#X/	2ryy
*	*	*	*	*v	*v
*	*v	*v	*	*
*v	*v	*	*
*	*v	*v
==	==
*-	*-
!!!system-decoration: [(s1,s2)]
!!!EED: Leszek Kubiak
!!!EEV: 2020-12-09
!!!ENC: Marta Chmielewska
!!!END: 2020-06-15
